X: 1
T: The Lads o Dunse
M: 6/8
L: 1/8
K: D
B | A2D DED | DED B2A | Bcd AFA | BGE E2d |
A2D DED | DED B2A | Bcd AFd | AFD D2 :|
g | fef d2e | fga B2A | Bcd AFA | BGE E2
[1 g | fef d2e | fga B2A | Bcd AFd | AFD D2 :|
[2 f/g/ | afa geg | fdf ece | dcB AFd | AFD D2 |]
